public/docs.svg

<svg width="32" height="32" viewBox="0 0 32 32" fill="none" xmlns="http://www.w3.org/2000/svg">
<path d="M17.9894 5.11119L28.4198 10.3185C28.9018 10.5591 28.9093 11.2432 28.4327 11.4943L14.8861 18.6331C14.5137 18.8293 14.0999 18.934 13.6791 18.9386C13.2582 18.9432 12.8422 18.8476 12.4656 18.6596L3.95968 14.4131C2.92365 13.998 1.7655 14.757 1.7655 15.9003C1.7655 16.8196 2.2857 17.66 3.10918 18.0711L11.6365 22.3283C12.1571 21.7991 12.8819 21.4708 13.6835 21.4708C14.4622 21.4708 15.1684 21.7806 15.6853 22.2834L26.3064 16.6864C26.2768 16.52 26.262 16.3513 26.2621 16.1823C26.2621 14.6002 27.5466 13.3177 29.131 13.3177C30.7155 13.3177 32 14.6002 32 16.1823C32 17.7643 30.7155 19.0468 29.131 19.0468C28.3563 19.0468 27.6533 18.7402 27.1371 18.2419L16.5101 23.8421C16.5383 24.005 16.5525 24.1701 16.5524 24.3354C16.5524 25.9175 15.268 27.2 13.6835 27.2C12.099 27.2 10.8145 25.9175 10.8145 24.3354C10.8145 24.1891 10.8255 24.0454 10.8467 23.905L2.1959 19.5862C0.850112 18.9143 0 17.5409 0 16.0386V15.2018C0 14.0576 0.63424 13.0074 1.64768 12.4734L15.5689 5.13775C15.9413 4.94155 16.3551 4.83681 16.7759 4.83219C17.1968 4.82757 17.6128 4.92321 17.9894 5.11119ZM13.6835 25.4372C14.2929 25.4372 14.7869 24.9439 14.7869 24.3354C14.7869 23.7269 14.2929 23.2337 13.6835 23.2337C13.0741 23.2337 12.5801 23.7269 12.5801 24.3354C12.5801 24.9439 13.0741 25.4372 13.6835 25.4372ZM30.2345 16.1823C30.2345 16.7907 29.7405 17.284 29.131 17.284C28.5216 17.284 28.0276 16.7907 28.0276 16.1823C28.0276 15.5738 28.5216 15.0805 29.131 15.0805C29.7405 15.0805 30.2345 15.5738 30.2345 16.1823Z" fill="#536471"/>
</svg>

<svg width="32" height="32" fill="none" xmlns="http://www.w3.org/2000/svg"><path d="m17.99 5.111 10.43 5.208a.66.66 0 0 1 .013 1.175l-13.547 7.14a2.652 2.652 0 0 1-2.42.026L3.96 14.413A1.602 1.602 0 0 0 1.766 15.9c0 .92.52 1.76 1.343 2.171l8.527 4.257a2.863 2.863 0 0 1 2.048-.857c.778 0 1.484.31 2.001.812l10.621-5.597A2.869 2.869 0 1 1 32 16.182a2.867 2.867 0 0 1-2.869 2.865 2.862 2.862 0 0 1-1.994-.805l-10.627 5.6a2.867 2.867 0 0 1-2.827 3.358 2.867 2.867 0 0 1-2.836-3.295l-8.651-4.319A3.966 3.966 0 0 1 0 16.04v-.837c0-1.144.634-2.195 1.648-2.729l13.92-7.335a2.652 2.652 0 0 1 2.421-.027zm-4.306 20.326a1.103 1.103 0 1 0 .001-2.205 1.103 1.103 0 0 0-.002 2.205zm16.55-9.255a1.103 1.103 0 1 1-2.205-.001 1.103 1.103 0 0 1 2.206.001z" fill="#536471"/></svg>
